assets/materialformkdocs/mono.svg

<svg viewBox="0 0 24 24" xmlns="http://www.w3.org/2000/svg"><path d="m17.029 18.772.777 1.166-5.417 2.709-12.389-6.196v-12.388l5.417-2.709 5.298 7.948 7.867-5.24 5.418-2.708v15.486l-5.417 2.709zm2.023-13.827v13.253l3.949-1.975v-13.253zm-13.976-2.303-3.618 1.808 11.272 16.908 3.618-1.809z"/></svg>

<svg xmlns="http://www.w3.org/2000/svg" viewBox="0 0 24 24"><path d="m17.029 18.772.777 1.166-5.417 2.709L0 16.451V4.063l5.417-2.709 5.298 7.948 7.867-5.24L24 1.354V16.84l-5.417 2.709zm2.023-13.827v13.253l3.949-1.975V2.97zM5.076 2.642 1.458 4.45 12.73 21.358l3.618-1.809z"/></svg>
